elements/app-hax/lib/assets/images/DMGrid.svg

<svg width="1280" height="599" viewBox="0 0 1280 599" fill="none" xmlns="http://www.w3.org/2000/svg">
<path d="M1352 149.665H-7.49347M1352 296.437H-7.49347M1352 443.21H-7.49347M1352 589.982H-7.49347M94.5323 2.89246V604M247.571 2.89246V604M400.61 2.89246V604M553.648 2.89246V604M706.687 2.89246V604M859.726 604V3M1012.76 604V3M1165.8 604V3M1318.84 3V599.107" stroke="#EAFEFF" stroke-opacity="0.15"/>
<path d="M-8.49355 29.3545V29.1045H-8.74355V29.3545H-8.49355ZM1348.45 589.519L-3.39227 589.519V590.019L1348.45 590.019V589.519ZM1351 175.877L-8.49355 175.877V176.377L1351 176.377V175.877ZM1351 200.339L-8.49355 200.339V200.839L1351 200.839V200.339ZM1351 224.801L-8.49355 224.801V225.301L1351 225.301V224.801ZM1351 249.263L-8.49355 249.263V249.763L1351 249.763V249.263ZM1351 273.725L-8.49355 273.725V274.225L1351 274.225V273.725ZM1351 29.1046L-8.49355 29.1045V29.6045L1351 29.6046V29.1046ZM1351 53.5666L-8.49355 53.5665V54.0665L1351 54.0666V53.5666ZM1351 78.0287L-8.49355 78.0286V78.5286L1351 78.5287V78.0287ZM1351 102.491L-8.49355 102.491V102.991L1351 102.991V102.491ZM1351 126.953L-8.49355 126.953V127.453L1351 127.453V126.953ZM1351 469.422L-8.49355 469.422V469.922L1351 469.922V469.422ZM1351 493.884L-8.49355 493.884V494.384L1351 494.384V493.884ZM1351 518.346L-8.49355 518.346V518.846L1351 518.846V518.346ZM1351 542.808L-8.49355 542.808V543.308L1351 543.308V542.808ZM1351 567.27L-8.49355 567.27V567.77L1351 567.77V567.27ZM1351 322.649L-8.49355 322.649V323.149L1351 323.149V322.649ZM1351 347.111L-8.49355 347.111V347.611L1351 347.611V347.111ZM1351 371.573L-8.49355 371.573V372.073L1351 372.073V371.573ZM1351 396.035L-8.49355 396.035V396.535L1351 396.535V396.035ZM1351 420.497L-8.49355 420.497V420.997L1351 420.997V420.497ZM-34.25 0V592.215H-33.75V0H-34.25ZM-8.74355 29.3545V597.108H-8.24355V29.3545H-8.74355ZM16.7629 4.89241V597.108H17.2629V4.89241H16.7629ZM42.2693 4.89241L42.2693 597.108H42.7693L42.7693 4.89241H42.2693ZM67.7758 3V605H68.2758V3H67.7758ZM1190.06 3V602H1190.56V3H1190.06ZM1215.57 2.99997V602H1216.07V2.99997H1215.57ZM1241.07 2.99997V602H1241.57V2.99997H1241.07ZM1266.58 2.99997V602H1267.08V2.99997H1266.58ZM1292.09 2.99997V602H1292.59V2.99997H1292.09ZM118.789 3V602H119.289V3H118.789ZM144.295 3V602H144.795V3H144.295ZM169.802 3V602H170.302V3H169.802ZM195.308 3V602H195.808V3H195.308ZM220.814 3V602H221.314V3H220.814ZM424.866 3V602H425.366V3H424.866ZM450.372 3L450.372 602H450.872L450.872 3H450.372ZM475.879 3L475.879 602H476.379L476.379 3H475.879ZM501.385 3V602H501.885V3H501.385ZM526.892 3V602H527.392V3H526.892ZM271.827 3V602H272.327V3H271.827ZM297.334 3V602H297.834V3H297.334ZM322.84 3V602H323.34V3H322.84ZM348.347 3V602H348.847V3H348.347ZM373.853 3V602H374.353V3H373.853ZM730.943 1.10759V602H731.443V1.10759H730.943ZM756.45 3V606.892H756.95V3H756.45ZM781.956 3V602H782.456V3H781.956ZM807.463 3V602H807.963V3H807.463ZM832.969 3V602H833.469V3H832.969ZM577.905 3V602H578.405V3H577.905ZM603.411 3V602H603.911V3H603.411ZM628.918 3V602H629.418V3H628.918ZM654.424 3V602H654.924V3H654.424ZM679.93 3V602H680.43V3H679.93ZM1037.02 3V602H1037.52V3H1037.02ZM1062.53 3V602H1063.03V3H1062.53ZM1088.03 3V602H1088.53V3H1088.03ZM1113.54 3V602H1114.04V3H1113.54ZM1139.05 3V602H1139.55V3H1139.05ZM883.982 3V602H884.482V3H883.982ZM909.489 3V602H909.989V3H909.489ZM934.995 3V602H935.495V3H934.995ZM960.501 3V602H961.001V3H960.501ZM986.008 3V602H986.508V3H986.008Z" fill="#EAFEFF" fill-opacity="0.15"/>
</svg>

<svg xmlns="http://www.w3.org/2000/svg" fill="none" width="1280" height="599" viewBox="0 0 1280 599"><path d="M1352 149.665H-7.493M1352 296.437H-7.493M1352 443.21H-7.493M1352 589.982H-7.493M94.532 2.892V604M247.571 2.892V604M400.61 2.892V604M553.648 2.892V604M706.687 2.892V604m153.039 0V3m153.034 601V3m153.04 601V3m153.04 0v596.107" stroke="#EAFEFF" stroke-opacity=".15"/><path d="M-8.494 29.355v-.25h-.25v.25h.25ZM1348.45 589.519H-3.392v.5H1348.45v-.5Zm2.55-413.642H-8.494v.5H1351v-.5Zm0 24.462H-8.494v.5H1351v-.5Zm0 24.462H-8.494v.5H1351v-.5Zm0 24.462H-8.494v.5H1351v-.5Zm0 24.462H-8.494v.5H1351v-.5Zm0-244.62H-8.494v.5H1351v-.5Zm0 24.462H-8.494v.5H1351v-.5Zm0 24.462H-8.494v.5H1351v-.5Zm0 24.462H-8.494v.5H1351v-.5Zm0 24.462H-8.494v.5H1351v-.5Zm0 342.469H-8.494v.5H1351v-.5Zm0 24.462H-8.494v.5H1351v-.5Zm0 24.462H-8.494v.5H1351v-.5Zm0 24.462H-8.494v.5H1351v-.5Zm0 24.462H-8.494v.5H1351v-.5Zm0-244.621H-8.494v.5H1351v-.5Zm0 24.462H-8.494v.5H1351v-.5Zm0 24.462H-8.494v.5H1351v-.5Zm0 24.462H-8.494v.5H1351v-.5Zm0 24.462H-8.494v.5H1351v-.5ZM-34.25 0v592.215h.5V0h-.5Zm25.506 29.355v567.753h.5V29.355h-.5ZM16.763 4.892v592.216h.5V4.892h-.5Zm25.506 0v592.216h.5V4.892h-.5ZM67.776 3v602h.5V3h-.5ZM1190.06 3v599h.5V3h-.5Zm25.51 0v599h.5V3h-.5Zm25.5 0v599h.5V3h-.5Zm25.51 0v599h.5V3h-.5Zm25.51 0v599h.5V3h-.5ZM118.789 3v599h.5V3h-.5Zm25.506 0v599h.5V3h-.5Zm25.507 0v599h.5V3h-.5Zm25.506 0v599h.5V3h-.5Zm25.506 0v599h.5V3h-.5Zm204.052 0v599h.5V3h-.5Zm25.506 0v599h.5V3h-.5Zm25.507 0v599h.5V3h-.5Zm25.506 0v599h.5V3h-.5Zm25.507 0v599h.5V3h-.5ZM271.827 3v599h.5V3h-.5Zm25.507 0v599h.5V3h-.5Zm25.506 0v599h.5V3h-.5Zm25.507 0v599h.5V3h-.5Zm25.506 0v599h.5V3h-.5Zm357.09-1.892V602h.5V1.108h-.5ZM756.45 3v603.892h.5V3h-.5Zm25.506 0v599h.5V3h-.5Zm25.507 0v599h.5V3h-.5Zm25.506 0v599h.5V3h-.5ZM577.905 3v599h.5V3h-.5Zm25.506 0v599h.5V3h-.5Zm25.507 0v599h.5V3h-.5Zm25.506 0v599h.5V3h-.5Zm25.506 0v599h.5V3h-.5Zm357.09 0v599h.5V3h-.5Zm25.51 0v599h.5V3h-.5Zm25.5 0v599h.5V3h-.5Zm25.51 0v599h.5V3h-.5Zm25.51 0v599h.5V3h-.5ZM883.982 3v599h.5V3h-.5Zm25.507 0v599h.5V3h-.5Zm25.506 0v599h.5V3h-.5Zm25.506 0v599h.5V3h-.5Zm25.507 0v599h.5V3h-.5Z" fill="#EAFEFF" fill-opacity=".15"/></svg>
